<?xml version="1.0" encoding="UTF-8"?>
<map version="1.10" tiledversion="1.11.2" orientation="orthogonal" renderorder="right-down" width="60" height="60" tilewidth="16" tileheight="16" infinite="0" nextlayerid="8" nextobjectid="12">
 <tileset firstgid="1" name="GRASS+" tilewidth="16" tileheight="16" tilecount="350" columns="25">
  <image source="GRASS+.png" trans="ffffff" width="400" height="224"/>
 </tileset>
 <layer id="1" name="grass" width="60" height="60">
  <data encoding="csv">
201,201,201,201,212,212,212,212,201,201,201,201,201,201,201,201,201,201,201,201,201,201,201,201,201,201,201,201,201,201,201,201,201,201,201,201,201,201,201,201,201,201,201,201,201,201,201,201,201,201,201,201,201,201,201,201,201,201,201,201,
201,201,201,201,212,212,212,212,201,201,201,201,201,201,201,201,201,201,201,201,201,201,201,201,201,201,201,201,201,201,201,201,201,201,201,201,201,201,201,201,201,201,201,201,201,201,201,201,201,201,201,201,201,201,201,201,201,201,201,201,
201,201,201,201,212,212,212,212,201,201,201,201,201,201,201,201,201,201,201,201,201,201,201,201,201,201,201,201,201,201,201,201,201,201,201,201,201,201,201,201,201,201,201,201,201,201,201,201,201,201,201,201,201,201,201,201,201,201,201,201,
201,201,201,201,212,212,212,212,201,201,201,201,201,201,201,201,201,201,201,201,201,201,201,201,201,201,201,201,201,201,201,201,201,201,201,201,201,201,201,201,201,201,201,201,201,201,201,201,201,201,201,201,201,201,201,201,201,201,201,201,
201,201,201,201,181,181,181,181,181,201,201,201,201,201,201,201,201,201,201,201,201,201,201,201,201,201,201,201,201,201,201,201,201,201,201,201,201,201,201,201,201,201,201,201,201,201,201,201,201,201,201,201,201,201,201,201,201,201,201,201,
201,201,201,201,201,181,181,181,181,181,201,201,201,201,201,201,201,201,201,201,201,201,201,201,201,201,201,201,201,201,201,201,201,201,201,201,201,201,201,201,201,201,201,201,201,201,201,201,201,201,201,201,201,201,201,201,201,201,201,201,
201,201,201,201,201,181,181,181,181,181,181,181,181,181,181,181,181,181,181,181,181,181,181,201,201,201,201,201,201,201,201,201,201,201,201,201,201,201,201,201,201,201,201,201,201,201,201,201,201,201,201,201,201,201,201,201,201,201,201,201,
201,201,201,201,201,201,181,181,181,181,181,181,181,181,181,181,181,181,181,181,181,181,181,181,181,181,201,201,201,201,201,201,201,201,201,201,201,201,201,201,201,201,201,201,201,201,201,201,201,201,201,201,201,201,201,201,201,201,201,201,
201,201,201,201,201,201,201,201,181,181,181,181,181,181,181,181,181,181,181,181,181,181,181,181,181,181,181,181,181,201,201,201,201,201,201,201,201,201,201,201,201,201,201,201,201,201,201,201,201,201,201,201,201,201,201,201,201,201,201,201,
201,201,201,201,201,201,201,201,201,201,201,181,181,181,181,181,181,181,181,181,181,181,181,181,181,181,181,181,181,181,181,201,201,201,201,201,201,201,201,201,201,201,201,201,201,201,201,201,201,201,201,201,201,201,201,201,201,201,201,201,
201,201,201,201,201,201,201,201,201,201,201,201,201,201,201,201,201,201,201,201,201,201,201,181,181,181,181,181,181,181,181,181,181,181,201,201,201,201,201,201,201,201,201,201,201,201,201,201,201,201,201,201,201,201,201,201,201,201,201,201,
201,201,201,201,201,201,201,201,201,201,201,201,201,201,201,201,201,201,201,201,201,201,201,201,201,201,201,201,181,181,181,181,181,181,181,181,181,181,201,201,201,201,201,201,201,201,201,201,201,201,201,201,201,201,201,201,201,201,201,201,
201,201,201,201,201,201,201,201,201,201,201,201,201,201,201,201,201,201,201,201,201,201,201,201,201,201,201,201,201,201,201,201,181,181,181,181,181,181,181,181,181,181,181,181,201,201,201,201,201,201,201,201,201,201,201,201,201,201,201,201,
201,201,201,201,201,201,201,201,201,201,201,201,201,201,201,201,201,201,201,201,201,201,201,201,201,201,201,201,201,201,201,201,201,201,181,181,181,181,181,181,181,181,181,181,181,181,181,181,181,181,201,201,201,201,201,201,201,201,201,201,
201,201,201,201,201,201,201,201,201,201,201,201,201,201,201,201,201,201,201,201,201,201,201,201,201,201,201,201,201,201,201,201,201,201,201,201,201,201,181,181,181,181,181,181,181,181,181,181,181,181,181,181,181,201,201,201,201,201,201,201,
201,201,201,201,201,201,201,201,201,201,201,201,201,201,201,201,201,201,201,201,201,201,201,201,201,201,201,201,201,201,201,201,201,201,201,201,201,201,201,201,201,201,201,181,181,181,181,181,181,181,181,181,181,181,181,201,201,201,201,201,
201,201,201,201,201,201,201,201,201,201,201,201,201,201,201,201,201,201,201,201,201,201,201,201,201,201,201,201,201,201,201,201,201,201,201,201,201,201,201,201,201,201,201,201,201,201,201,201,181,181,181,181,181,181,181,181,201,201,201,201,
201,201,201,201,201,201,201,201,201,201,201,201,201,201,201,201,201,201,201,201,201,201,201,201,201,201,201,201,201,201,201,201,201,201,201,201,201,201,201,201,201,201,201,201,201,201,201,201,201,201,201,201,181,181,181,181,201,201,201,201,
201,201,201,201,201,201,201,201,201,201,201,201,201,201,201,201,201,201,201,201,201,201,201,201,201,201,201,201,201,201,201,201,201,201,201,201,201,201,201,201,201,201,201,201,201,201,201,201,201,201,201,201,181,181,181,181,201,201,201,201,
201,201,201,201,201,201,201,201,201,201,201,201,201,201,201,201,201,201,201,201,201,201,201,201,201,201,201,201,201,201,201,201,201,201,201,201,201,201,201,201,201,201,181,181,201,201,201,201,201,201,201,201,181,181,181,181,201,201,201,201,
201,201,201,201,201,201,201,201,201,201,201,201,201,201,201,201,201,201,201,201,201,201,201,201,201,201,201,181,181,201,181,181,181,201,181,181,181,181,181,181,181,181,181,181,181,181,181,181,181,181,201,201,201,181,181,181,201,201,201,201,
201,201,201,201,201,201,201,201,201,201,201,201,201,201,201,201,201,201,201,201,201,181,181,181,181,181,181,181,181,181,181,181,181,181,181,181,181,181,181,181,181,181,181,181,181,181,181,181,181,181,181,181,181,181,181,181,201,201,201,201,
201,201,201,201,201,201,201,201,201,201,201,201,201,201,201,201,201,201,181,181,181,181,181,181,181,181,181,181,181,181,181,181,181,181,181,181,181,181,181,181,181,181,181,181,181,181,181,181,181,181,181,181,181,181,201,201,201,201,201,201,
201,201,201,201,201,201,201,201,201,201,201,201,201,201,201,201,181,181,181,181,181,181,181,181,181,181,181,181,181,181,181,201,201,201,201,201,201,201,201,201,181,181,201,181,181,201,201,201,201,201,201,201,201,201,201,201,201,201,201,201,
201,201,201,201,201,201,201,201,201,201,201,201,201,201,201,181,181,181,181,181,181,181,181,181,201,201,201,201,201,201,201,201,201,201,201,201,201,201,201,201,201,201,201,201,201,201,201,201,201,201,201,201,201,201,201,201,201,201,201,201,
201,201,201,201,201,201,201,201,201,201,201,201,201,181,181,181,181,181,181,181,201,201,201,201,201,201,201,201,201,201,201,201,201,201,201,201,201,201,201,201,201,201,201,201,201,201,201,201,201,201,201,201,201,201,201,201,201,201,201,201,
201,201,201,201,201,201,201,201,201,201,201,201,181,181,181,181,181,181,181,201,201,201,201,201,201,201,201,201,201,201,201,201,201,201,201,201,201,201,201,201,201,201,201,201,201,201,201,201,201,201,201,201,201,201,201,201,201,201,201,201,
201,201,201,201,201,201,201,201,201,201,201,181,181,181,181,181,181,181,201,201,201,201,201,201,201,201,201,201,201,201,201,201,201,201,201,201,201,201,201,201,181,181,201,201,201,201,201,201,201,201,201,201,201,201,201,201,201,201,201,201,
201,201,201,201,201,201,201,201,201,201,181,181,181,181,181,181,201,181,201,201,201,201,201,201,201,201,201,201,201,201,201,201,201,201,201,201,201,181,181,181,181,181,181,181,181,201,201,201,201,201,201,201,201,201,201,201,201,201,201,201,
201,201,201,201,201,201,201,201,201,201,181,181,181,181,181,181,201,201,201,201,201,201,201,201,201,201,201,201,201,201,201,201,201,201,201,201,181,181,181,181,181,181,181,181,181,181,201,201,201,201,201,201,201,201,201,201,201,201,201,201,
201,201,201,201,201,201,201,201,201,181,181,181,181,181,181,181,201,201,201,201,201,201,201,201,201,201,201,201,201,201,201,201,201,201,201,181,181,181,181,181,181,181,201,181,181,181,181,201,201,201,201,201,201,201,201,201,201,201,201,201,
201,201,201,201,201,201,201,201,201,181,181,181,181,201,201,201,201,201,201,201,201,201,201,201,201,201,201,201,201,201,201,201,201,201,181,181,181,181,181,201,201,201,201,201,181,181,181,181,201,201,201,201,201,201,201,201,201,201,201,201,
201,201,201,201,201,201,201,201,181,181,181,181,181,201,201,201,201,201,201,201,201,201,201,201,201,201,201,201,201,201,201,201,201,181,181,181,181,201,201,201,201,201,201,201,181,181,181,181,181,201,201,201,201,201,201,201,201,201,201,201,
201,201,201,201,201,201,201,201,181,181,181,181,201,201,201,201,201,201,201,201,201,201,201,201,201,201,201,201,201,201,201,201,181,181,181,181,201,201,201,201,201,201,201,201,181,181,181,181,181,201,201,201,201,201,201,201,201,201,201,201,
201,201,201,201,201,201,201,201,181,181,181,201,201,201,201,201,201,201,201,201,201,201,201,201,201,201,201,201,201,201,201,201,181,181,181,201,201,201,201,201,201,201,201,201,201,201,181,181,181,201,201,201,201,201,201,201,201,201,201,201,
201,201,201,201,201,201,201,201,181,181,181,201,201,201,201,201,201,201,201,201,201,201,201,201,201,201,201,201,201,201,201,201,181,181,181,201,201,201,201,201,201,201,201,201,201,181,181,181,181,181,201,201,201,201,201,201,201,201,201,201,
201,201,201,201,201,201,201,181,181,181,181,201,201,201,201,201,201,201,201,201,201,201,201,201,201,201,201,201,201,201,201,201,181,181,181,201,201,201,201,201,201,201,201,201,201,201,201,181,181,181,201,201,201,201,201,201,201,201,201,201,
201,201,201,201,201,201,201,181,181,181,201,201,201,201,201,201,201,201,201,201,201,201,201,201,201,201,201,201,201,201,201,181,181,181,201,201,201,201,201,201,201,201,201,201,201,201,181,181,181,181,201,201,201,201,201,201,201,201,201,201,
201,201,201,201,201,201,201,181,181,181,201,201,201,201,201,201,201,201,201,201,201,201,201,201,201,201,201,201,201,201,201,181,181,181,201,201,201,201,201,201,201,201,201,201,201,181,181,181,181,181,181,201,201,201,201,201,201,201,201,201,
201,201,201,201,201,201,201,201,181,181,201,201,201,201,201,201,201,201,201,201,201,201,201,201,201,201,201,201,201,201,201,181,181,181,201,201,201,201,201,201,201,201,201,201,201,201,181,181,181,181,181,201,201,201,201,201,201,201,201,201,
201,201,201,201,201,201,201,181,181,181,201,201,201,201,201,201,201,201,201,201,201,201,201,201,201,201,201,201,201,201,201,181,181,201,201,201,201,201,201,201,201,201,201,201,201,201,201,201,181,181,181,201,201,201,201,201,201,201,201,201,
201,201,201,201,201,201,181,181,181,181,201,201,201,201,201,201,201,201,201,201,201,201,201,201,201,201,201,201,201,201,181,181,181,201,201,201,201,201,201,201,201,201,201,201,201,201,201,201,181,181,181,201,201,201,201,201,201,201,201,201,
201,201,201,201,201,201,181,181,181,201,201,201,201,201,201,201,201,201,201,201,201,201,201,201,201,201,201,201,201,201,181,181,181,201,201,201,201,201,201,201,201,201,201,201,201,201,201,201,181,181,181,181,201,201,201,201,201,201,201,201,
201,201,201,201,201,201,181,181,181,201,201,201,201,201,201,201,201,201,201,201,201,201,201,201,201,201,201,201,201,201,181,181,181,201,201,201,201,201,201,201,201,201,201,201,201,201,201,201,181,181,181,181,201,201,201,201,201,201,201,201,
201,201,201,201,201,201,201,181,181,201,181,201,201,201,201,201,201,201,201,201,201,201,201,201,201,201,201,201,201,181,181,181,181,201,201,201,201,201,201,201,201,201,201,201,201,201,201,201,201,181,181,181,201,201,201,201,201,201,201,201,
201,201,201,201,201,201,201,181,181,181,181,201,201,201,201,201,201,201,201,201,201,201,201,201,201,201,201,201,201,181,181,181,181,201,201,201,201,201,201,201,201,201,201,201,201,201,201,201,201,181,181,181,201,201,201,201,201,201,201,201,
201,201,201,201,201,201,201,181,181,181,181,201,201,201,201,201,201,201,201,201,201,201,201,201,201,201,201,201,181,181,181,181,181,201,201,201,201,201,201,201,201,201,201,201,201,201,201,201,201,181,181,181,201,201,201,201,201,201,201,201,
201,201,201,201,201,201,201,181,181,181,181,201,201,201,201,201,201,201,201,201,201,201,201,201,201,201,201,201,181,181,181,181,201,201,201,201,201,201,201,201,201,201,201,201,201,201,201,201,201,181,181,181,201,201,201,201,201,201,201,201,
201,201,201,201,201,201,181,181,181,181,181,181,181,181,201,201,201,201,201,201,201,201,201,201,201,201,201,201,181,181,181,181,201,201,201,201,201,201,201,201,201,201,201,201,201,201,201,201,201,181,181,181,201,201,201,201,201,201,201,201,
201,201,201,201,201,201,181,181,181,181,181,181,181,181,201,201,201,201,201,201,201,201,201,201,201,201,201,181,181,181,181,181,201,201,201,201,201,201,201,201,201,201,201,201,201,201,201,201,201,181,181,181,201,201,201,201,201,201,201,201,
201,201,201,201,201,201,181,181,181,181,181,181,181,181,201,201,201,201,201,201,201,201,201,201,201,201,181,181,181,181,181,201,201,201,201,201,201,201,201,201,201,201,201,201,201,201,201,201,201,181,181,181,201,201,201,201,201,201,201,201,
201,201,201,201,201,201,201,181,181,181,201,201,181,181,201,201,201,201,201,201,201,201,201,201,201,181,181,181,181,181,201,201,201,201,201,201,201,201,201,201,201,201,201,201,201,201,201,201,201,181,181,181,201,201,201,201,201,201,201,201,
201,201,201,201,201,201,201,201,201,201,201,181,181,181,181,181,181,201,201,201,201,201,201,201,181,181,181,201,181,201,201,201,201,201,201,201,201,201,201,201,201,201,201,201,201,201,201,201,201,181,181,181,181,201,201,201,201,201,201,201,
201,201,201,201,201,201,201,201,201,201,201,181,181,181,181,181,181,201,201,181,201,201,181,181,181,181,181,201,201,201,201,201,201,201,201,201,201,201,201,201,201,201,201,201,201,201,201,201,181,181,181,181,201,201,201,201,201,201,201,201,
201,201,201,201,201,201,201,201,201,201,201,201,201,201,181,181,181,181,181,181,181,181,181,181,181,181,201,201,201,201,201,201,201,201,201,201,201,201,201,201,201,201,201,201,201,201,201,201,181,181,181,181,201,201,201,201,201,201,201,201,
201,201,201,201,201,201,201,201,201,201,201,201,201,201,181,181,181,181,181,181,181,181,181,181,181,181,201,201,201,201,201,201,201,201,201,201,201,201,201,201,201,201,201,201,201,201,201,201,181,181,181,181,201,201,201,201,201,201,201,201,
201,201,201,201,201,201,201,201,201,201,201,201,201,201,201,181,201,201,181,201,181,181,201,201,201,201,201,201,201,201,201,201,201,201,201,201,201,201,201,201,201,201,201,201,201,201,201,201,212,212,212,212,201,201,201,201,201,201,201,201,
201,201,201,201,201,201,201,201,201,201,201,201,201,201,201,201,201,201,201,201,181,181,201,201,201,201,201,201,201,201,201,201,201,201,201,201,201,201,201,201,201,201,201,201,201,201,201,201,212,186,187,188,201,201,201,201,201,201,201,201,
201,201,201,201,201,201,201,201,201,201,201,201,201,201,201,201,201,201,201,201,201,201,201,201,201,201,201,201,201,201,201,201,201,201,201,201,201,201,201,201,201,201,201,201,201,201,201,201,212,212,212,213,201,201,201,201,201,201,201,201,
201,201,201,201,201,201,201,201,201,201,201,201,201,201,201,201,201,201,201,201,201,201,201,201,201,201,201,201,201,201,201,201,201,201,201,201,201,201,201,201,201,201,201,201,201,201,201,201,212,212,237,238,201,201,201,201,201,201,201,201
</data>
 </layer>
 <objectgroup id="3" name="start_end">
  <object id="2" name="start" type="start" x="65" y="3" width="61" height="60"/>
  <object id="6" name="end" type="end" x="768" y="912" width="64" height="48"/>
 </objectgroup>
 <objectgroup id="6" name="trail">
  <object id="11" name="trail" type="trail" x="48" y="48" width="480" height="128">
   <properties>
    <property name="polygonPoints" value="16,16 96,16 112,48 320,48 448,96 560,144 752,160 496,160 400,128 144,112 80,96"/>
   </properties>
   <polygon points="16,16 96,16 112,48 320,48 448,96 560,144 752,160 496,160 400,128 144,112 80,96"/>
  </object>
 </objectgroup>
 <objectgroup id="7" name="runner">
  <object id="8" name="runner" type="runner" x="80" y="32"/>
 </objectgroup>
 <objectgroup id="2" name="player">
  <object id="1" name="player" type="player" x="111" y="36"/>
 </objectgroup>
</map>
