<?xml version="1.0" encoding="UTF-8"?>
<map version="1.10" tiledversion="1.11.2" orientation="orthogonal" renderorder="right-down" width="30" height="30" tilewidth="32" tileheight="32" infinite="0" nextlayerid="5" nextobjectid="9">
  <tileset firstgid="1" name="GRASS+" tilewidth="32" tileheight="32" tilecount="84" columns="12">
   <image source="GRASS+.png" width="400" height="224"/>
  </tileset>
<!--   <tileset firstgid="85" name="tree_2" tilewidth="64" tileheight="80" tilecount="1" columns="1"> -->
<!--      <image source="tree_2.png" width="64" height="80"/> -->
<!--   </tileset> -->
 <layer id="1" name="floor" width="30" height="30">
  <data encoding="csv">
35,35,30,30,30,35,35,35,35,35,35,35,35,35,35,35,35,35,35,35,35,35,35,35,35,35,35,35,35,35,
35,35,30,30,30,35,35,35,35,35,35,35,35,35,35,35,35,35,35,35,35,35,56,56,56,56,56,35,35,35,
35,35,56,56,35,35,35,35,35,56,56,56,35,35,35,35,35,35,35,35,35,56,56,56,56,56,56,56,35,35,
35,35,56,56,56,56,56,56,56,56,56,56,56,35,35,35,56,56,56,56,56,56,56,35,35,35,56,56,35,35,
35,35,35,56,56,56,56,56,56,56,56,56,56,56,56,56,56,56,56,56,56,56,35,35,35,35,56,56,35,35,
35,35,35,35,35,35,35,35,35,35,35,35,56,56,56,56,35,35,35,35,35,35,35,35,35,35,56,56,35,35,
35,35,35,35,35,35,35,35,35,35,35,35,35,35,35,35,35,35,35,35,56,56,35,35,35,35,56,56,35,35,
35,35,35,35,35,35,35,35,35,35,35,35,35,35,35,35,35,35,56,56,56,56,56,56,56,56,56,56,35,35,
35,35,35,35,35,35,56,56,35,35,35,35,35,35,35,35,35,56,56,35,35,35,35,56,56,56,56,35,35,35,
35,35,35,35,56,56,56,56,56,56,35,56,56,56,35,35,35,56,56,35,35,35,35,35,56,56,35,35,35,35,
35,35,35,56,56,56,35,35,35,56,56,56,56,56,56,56,56,56,35,35,35,35,35,35,35,35,35,35,35,35,
35,35,35,56,56,35,35,35,35,35,35,35,35,35,35,35,35,35,35,35,35,35,35,35,35,35,35,35,35,35,
35,35,35,35,56,56,35,35,35,35,35,35,35,35,35,35,35,35,35,35,35,35,35,35,35,35,35,35,35,35,
35,35,35,35,56,56,56,56,35,35,35,35,35,35,35,35,35,35,35,35,35,35,35,35,35,35,35,35,35,35,
35,35,35,35,35,56,56,56,56,35,35,56,56,56,56,56,35,35,35,35,35,35,35,35,35,35,35,35,35,35,
35,35,35,35,35,35,56,56,56,56,56,56,56,56,56,56,56,56,56,56,56,56,35,35,35,35,35,35,35,35,
35,35,35,35,35,35,35,35,56,56,56,35,35,35,35,35,56,56,56,56,56,56,56,56,35,35,35,35,35,35,
35,35,35,35,35,35,35,35,35,35,35,35,35,35,35,35,35,35,35,35,35,56,56,56,56,56,35,35,35,35,
35,35,35,35,35,35,35,35,35,35,35,35,35,35,35,35,35,35,35,35,35,35,35,35,56,56,56,35,35,35,
35,35,35,35,35,35,35,35,35,35,35,35,35,35,35,35,35,35,35,35,35,35,35,35,35,56,56,35,35,35,
35,35,35,35,35,56,56,56,56,56,56,56,35,56,56,56,56,56,56,35,35,35,35,35,35,56,56,35,35,35,
35,35,35,35,56,56,56,56,56,56,56,56,56,56,56,56,56,56,56,56,35,35,35,56,56,56,56,35,35,35,
35,35,35,56,56,56,56,56,35,35,35,56,56,56,35,35,35,35,35,56,56,56,56,56,56,56,56,35,35,35,
35,35,56,56,56,35,35,35,35,35,35,35,35,35,35,35,35,35,35,35,56,56,35,35,35,35,35,35,35,35,
35,35,56,56,56,35,35,35,35,35,35,35,35,35,35,35,35,35,35,35,35,35,35,35,35,35,35,35,35,35,
35,35,56,56,56,35,35,35,35,35,35,35,35,35,56,56,35,35,35,35,35,35,35,35,35,35,35,35,35,35,
35,35,35,56,56,56,56,35,35,35,35,35,35,56,56,56,56,35,56,56,56,35,35,35,35,35,35,35,35,35,
35,35,35,35,56,56,56,56,56,56,56,56,56,56,35,35,56,56,56,56,56,56,56,35,35,35,35,35,35,35,
35,35,35,35,35,35,35,56,56,56,56,56,56,35,35,35,35,35,35,35,35,30,30,30,35,35,35,35,35,35,
35,35,35,35,35,35,35,35,35,35,35,35,35,35,35,35,35,35,35,35,35,30,30,30,35,35,35,35,35,35
</data>
 </layer>
<!--  <layer id="2" name="forest" width="30" height="30"> -->
<!--   <data encoding="csv"> -->
<!-- 0,0,0,0,0,0,85,0,85,85,85,0,0,0,0,0,0,0,0,0,85,85,85,85,85,85,85,85,85,0, -->
<!-- 85,0,0,0,0,85,85,85,85,0,85,85,85,85,85,0,85,85,85,85,85,0,0,0,0,0,0,85,85,85, -->
<!-- 85,0,0,0,0,85,85,85,0,0,0,0,0,0,85,85,85,0,0,0,0,0,0,0,0,0,0,0,85,85, -->
<!-- 85,0,0,0,0,0,0,0,0,0,0,0,0,0,0,0,0,0,0,0,0,0,0,0,0,0,0,0,85,85, -->
<!-- 85,0,0,0,0,0,0,0,0,0,0,0,0,0,0,0,0,0,0,0,0,0,0,85,85,0,0,0,85,85, -->
<!-- 85,85,85,0,0,0,0,0,0,0,0,0,0,0,0,0,0,0,0,0,0,0,85,0,85,0,0,0,85,85, -->
<!-- 0,0,85,0,85,85,85,85,85,0,0,0,0,85,0,0,0,85,85,0,0,0,85,85,85,0,0,0,85,85, -->
<!-- 85,85,85,85,85,0,85,85,85,85,85,85,85,85,85,85,85,0,0,0,0,0,0,0,0,0,0,0,85,85, -->
<!-- 85,85,85,85,85,0,0,0,85,85,85,85,85,85,85,0,0,0,0,0,0,0,0,0,0,0,0,0,85,85, -->
<!-- 85,85,85,0,0,0,0,0,0,0,0,0,0,0,85,85,0,0,0,85,0,85,0,0,0,0,0,0,85,85, -->
<!-- 85,85,0,0,0,0,0,0,0,0,0,0,0,0,0,0,0,0,0,85,85,85,85,0,0,0,0,0,85,85, -->
<!-- 0,85,0,0,0,85,85,85,0,0,0,0,0,0,0,0,0,0,0,85,85,85,85,85,0,0,0,0,85,85, -->
<!-- 85,85,0,0,0,0,85,85,85,85,85,85,85,85,85,85,85,85,85,85,85,85,85,85,85,85,0,85,85,85, -->
<!-- 85,85,85,0,0,0,0,0,85,85,85,0,85,85,85,85,85,85,85,85,85,85,85,85,85,85,85,85,85,85, -->
<!-- 85,85,85,0,0,0,0,0,0,0,0,0,0,0,0,0,85,85,85,85,85,85,85,85,85,85,85,85,85,85, -->
<!-- 85,85,85,0,0,0,0,0,0,0,0,0,0,0,0,0,0,0,0,0,0,0,0,85,85,85,85,85,85,85, -->
<!-- 85,85,85,0,0,0,0,0,0,0,0,0,0,0,0,0,0,0,0,0,0,0,0,0,85,85,85,85,85,85, -->
<!-- 85,85,85,0,85,0,0,0,0,0,0,0,85,0,0,0,0,0,0,0,0,0,0,0,0,0,0,85,85,85, -->
<!-- 85,0,85,85,85,85,85,85,85,85,85,85,85,85,85,85,85,85,85,85,0,0,0,0,0,0,0,85,0,85, -->
<!-- 85,85,85,0,85,85,85,85,85,85,85,85,85,85,85,85,85,85,85,85,85,85,85,85,0,0,0,85,85,85, -->
<!-- 85,85,85,85,0,0,0,0,0,0,0,0,0,0,0,0,0,0,0,85,85,85,85,85,0,0,0,85,85,85, -->
<!-- 85,85,0,85,0,0,0,0,0,0,0,0,0,0,0,0,0,0,0,0,85,85,0,0,0,0,0,85,85,85, -->
<!-- 85,0,0,0,0,0,0,0,0,0,0,0,0,0,0,0,0,0,0,0,0,0,0,0,0,0,0,85,85,85, -->
<!-- 85,85,0,0,0,0,0,0,0,0,0,0,0,0,0,0,0,0,0,0,0,0,0,0,0,0,85,85,85,85, -->
<!-- 0,85,0,0,0,85,0,0,0,85,0,85,85,85,0,85,85,85,85,85,0,85,85,85,85,0,85,85,85,85, -->
<!-- 85,85,0,0,0,85,85,85,85,85,85,85,85,85,0,0,85,85,0,85,85,85,85,85,85,85,85,85,85,85, -->
<!-- 85,85,0,0,0,0,0,85,85,85,85,85,0,0,0,0,0,0,0,0,0,85,85,85,85,85,0,85,85,85, -->
<!-- 85,0,0,0,0,0,0,0,0,0,0,0,0,0,0,0,0,0,0,0,0,0,0,0,85,85,0,0,85,85, -->
<!-- 85,85,85,85,0,0,0,0,0,0,0,0,0,0,85,0,0,0,0,0,0,0,0,0,85,85,85,85,85,85, -->
<!-- 0,85,85,0,85,85,85,85,85,85,85,85,85,85,85,85,0,85,0,85,0,0,0,0,85,85,85,85,85,85 -->
<!-- </data> -->
<!--  </layer> -->
 <objectgroup id="4" name="player">
  <object id="7" name="player" type="player" x="90.6667" y="12" width="24" height="24"/>
 </objectgroup>
</map>
